library/css/icons/svgs/fi-upload.svg

<svg xmlns="http://www.w3.org/2000/svg" width="100" height="100" viewBox="0 0 100 100"><path d="M85.886 49.615h-18.201c-2.218 0-4.185 1.374-4.865 3.406-1.803 5.375-6.957 8.983-12.819 8.983-5.864 0-11.016-3.608-12.818-8.983-.682-2.032-2.647-3.406-4.867-3.406h-18.2c-2.825 0-5.115 2.2-5.115 4.919v28.054c0 2.714 2.29 4.917 5.115 4.917h71.771c2.827 0 5.114-2.203 5.114-4.917v-28.054c-.001-2.719-2.289-4.919-5.115-4.919zM35.81 34.276h6.653v17.188c0 .735.617 1.326 1.376 1.326h12.317c.762 0 1.376-.591 1.376-1.326v-17.188h6.658c.514 0 .986-.279 1.221-.716.238-.442.197-.971-.102-1.374l-14.237-19.138c-.257-.346-.677-.553-1.119-.553h-.003c-.445 0-.859.207-1.119.558l-14.145 19.134c-.297.403-.334.932-.1 1.374.235.441.71.715 1.224.715z"/></svg>

<?xml version="1.0" encoding="utf-8"?>
<!-- Generator: Adobe Illustrator 17.0.0, SVG Export Plug-In . SVG Version: 6.00 Build 0)  -->
<!DOCTYPE svg PUBLIC "-//W3C//DTD SVG 1.1//EN" "http://www.w3.org/Graphics/SVG/1.1/DTD/svg11.dtd">
<svg version="1.1" id="Layer_1" xmlns="http://www.w3.org/2000/svg" xmlns:xlink="http://www.w3.org/1999/xlink" x="0px" y="0px"
	 width="100px" height="100px" viewBox="0 0 100 100" enable-background="new 0 0 100 100" xml:space="preserve">
<g>
	<path d="M85.886,49.615H67.685c-2.218,0-4.185,1.374-4.865,3.406c-1.803,5.375-6.957,8.983-12.819,8.983
		c-5.864,0-11.016-3.608-12.818-8.983c-0.682-2.032-2.647-3.406-4.867-3.406h-18.2c-2.825,0-5.115,2.2-5.115,4.919v28.054
		c0,2.714,2.29,4.917,5.115,4.917h71.771c2.827,0,5.114-2.203,5.114-4.917V54.534C91,51.815,88.712,49.615,85.886,49.615z"/>
	<path d="M35.81,34.276h6.653v17.188c0,0.735,0.617,1.326,1.376,1.326h12.317c0.762,0,1.376-0.591,1.376-1.326V34.276h6.658
		c0.514,0,0.986-0.279,1.221-0.716c0.238-0.442,0.197-0.971-0.102-1.374L51.072,13.048c-0.257-0.346-0.677-0.553-1.119-0.553H49.95
		c-0.445,0-0.859,0.207-1.119,0.558L34.686,32.187c-0.297,0.403-0.334,0.932-0.1,1.374C34.821,34.002,35.296,34.276,35.81,34.276z"
		/>
</g>
</svg>
